img/icons/svg/icon__calc-circle.svg

<svg width="33" height="39" viewBox="0 0 33 39" fill="none" xmlns="http://www.w3.org/2000/svg">
<path d="M31.6349 5.75753C31.6349 2.1547 24.4292 0.97168 20.0736 0.97168C9.48018 0.97168 0.715088 9.03772 0.715088 19.7387C0.715088 31.2462 9.15754 38.6132 20.0198 38.6132C22.9236 38.6132 32.0113 37.6453 32.0113 33.7198C32.0113 32.1066 30.7745 30.9236 29.2151 30.9236C27.2255 30.9236 25.1821 33.0207 20.0198 33.0207C12.8141 33.0207 7.0066 27.6972 7.0066 19.7387C7.0066 12.3179 12.9217 6.45659 19.966 6.45659C25.3434 6.45659 26.7415 8.55376 28.9462 8.55376C30.4519 8.55376 31.6349 7.37074 31.6349 5.75753Z" fill="white"/>
</svg>

<svg width="33" height="39" viewBox="0 0 33 39" fill="none" xmlns="http://www.w3.org/2000/svg"><path d="M31.635 5.758c0-3.603-7.206-4.786-11.561-4.786C9.48.972.715 9.038.715 19.739c0 11.507 8.443 18.874 19.305 18.874 2.904 0 11.991-.968 11.991-4.893 0-1.613-1.237-2.796-2.796-2.796-1.99 0-4.033 2.097-9.195 2.097-7.206 0-13.013-5.324-13.013-13.282 0-7.421 5.915-13.282 12.959-13.282 5.377 0 6.775 2.097 8.98 2.097 1.506 0 2.689-1.183 2.689-2.796z" fill="#fff"/></svg>
